X:147
T:B147-  The Freemason's Song (Come, let us prepare)
Q:1/4=120
L:1/4
M:6/4
K:F
C|CFFF3/2E/2D|EGGG3/2F/2E|FAAA3/2G/2F|A(c2c3/2)c/2 B/2A/2|\
Bddd3/2c/2B|Accc3/2B/2A|GAFE3/2F/2G|A(F2F2)||c|\
cfff3/2e/2d|eggg3/2f/2e|faaa3/2g/2f|e(g2g3/2)g/2 f/2e/2|\
fAAA3/2B/2c|dDDD3/2E/2F|EGcG3/2F/2G|A(F2F2)|]
